icons/file-excel-2-fill.svg

<svg viewBox="0 0 24 24" fill="currentColor" xmlns="http://www.w3.org/2000/svg"><path d="M2.85858 2.87732L15.4293 1.0815C15.7027 1.04245 15.9559 1.2324 15.995 1.50577C15.9983 1.52919 16 1.55282 16 1.57648V22.4235C16 22.6996 15.7761 22.9235 15.5 22.9235C15.4763 22.9235 15.4527 22.9218 15.4293 22.9184L2.85858 21.1226C2.36593 21.0522 2 20.6303 2 20.1327V3.86727C2 3.36962 2.36593 2.9477 2.85858 2.87732ZM17 2.99997H21C21.5523 2.99997 22 3.44769 22 3.99997V20C22 20.5523 21.5523 21 21 21H17V2.99997ZM10.2 12L13 7.99997H10.6L9 10.2857L7.39999 7.99997H5L7.8 12L5 16H7.39999L9 13.7143L10.6 16H13L10.2 12Z"/></svg>

<svg xmlns="http://www.w3.org/2000/svg" viewBox="0 0 24 24">
    <g>
        <path fill="none" d="M0 0h24v24H0z"/>
        <path d="M2.859 2.877l12.57-1.795a.5.5 0 0 1 .571.495v20.846a.5.5 0 0 1-.57.495L2.858 21.123a1 1 0 0 1-.859-.99V3.867a1 1 0 0 1 .859-.99zM17 3h4a1 1 0 0 1 1 1v16a1 1 0 0 1-1 1h-4V3zm-6.8 9L13 8h-2.4L9 10.286 7.4 8H5l2.8 4L5 16h2.4L9 13.714 10.6 16H13l-2.8-4z"/>
    </g>
</svg>
